public/markdown.svg

<svg width="256" height="158" viewBox="0 0 256 158" fill="none" xmlns="http://www.w3.org/2000/svg">
<path d="M238.371 157.892H18.3952C8.43114 157.892 0 149.461 0 139.497V18.3952C0 8.43114 8.43114 0 18.3952 0H237.605C247.569 0 256 8.43114 256 18.3952V139.497C256 149.461 248.335 157.892 238.371 157.892ZM18.3952 12.2635C15.3293 12.2635 12.2635 15.3293 12.2635 18.3952V139.497C12.2635 143.329 15.3293 145.629 18.3952 145.629H237.605C241.437 145.629 243.737 142.563 243.737 139.497V18.3952C243.737 14.5629 240.671 12.2635 237.605 12.2635C238.371 12.2635 18.3952 12.2635 18.3952 12.2635ZM36.7904 121.102V36.7904H61.3174L85.8443 67.4491L110.371 36.7904H134.898V121.102H110.371V72.8144L85.8443 103.473L61.3174 72.8144V121.102H36.7904ZM190.85 121.102L154.06 80.479H178.587V36.7904H203.114V79.7126H227.641L190.85 121.102Z" fill="black"/>
</svg>

<?xml version="1.0" encoding="UTF-8"?>
<svg id="Layer_1" xmlns="http://www.w3.org/2000/svg" version="1.1" viewBox="0 0 256 158">
  <!-- Generator: Adobe Illustrator 29.3.1, SVG Export Plug-In . SVG Version: 2.1.0 Build 151)  -->
  <defs>
    <style>
      .st0 {
        fill: #fff;
      }
    </style>
  </defs>
  <path class="st0" d="M238.4,157.9H18.4c-10,0-18.4-8.4-18.4-18.4V18.4C0,8.4,8.4,0,18.4,0h219.2c10,0,18.4,8.4,18.4,18.4v121.1c0,10-7.7,18.4-17.6,18.4ZM18.4,12.3c-3.1,0-6.1,3.1-6.1,6.1v121.1c0,3.8,3.1,6.1,6.1,6.1h219.2c3.8,0,6.1-3.1,6.1-6.1V18.4c0-3.8-3.1-6.1-6.1-6.1.8,0-219.2,0-219.2,0ZM36.8,121.1V36.8h24.5l24.5,30.7,24.5-30.7h24.5v84.3h-24.5v-48.3l-24.5,30.7-24.5-30.7v48.3h-24.5ZM190.9,121.1l-36.8-40.6h24.5v-43.7h24.5v42.9h24.5l-36.8,41.4Z"/>
</svg>
